!!!OTL: Yi xia tian lai ba kou kai
!!!ARE: Asia, China,ÿHubei, Baokang
!! I, 437
!!!SCT: C1448
!!!YEM: Copyright 1995, estate of Helmut Schaffrath.
**kern
*ICvox
*Ivox
*M2/4
*k[f#]
*G:
{2a}
=1
{8g
8e
4e
=2
8a
16b
16a
8g
8e
=3
16a
16g
8e
4g
=4
8.dd
16b
[4a
=5
4.a]
16g
16e
=6
2r}
=7
{2b
=8
8a
8g
4g
=9
8e
8g
4a
=10
8.a
16g
16g
16a
8e
=11
2d}
==
!!!AGN: Shange, Tiange, Haocao luogu
!!!ONB: ESAC (Essen Associative Code) Database: HUANG
!!!AMT: simple duple
!!!AIN: vox
!!!EED: Helmut Schaffrath
!!!EEV: 1.0
*-
!!!ONB: Tied note syntax fixed by Craig Sapp, 2004/05/03/
